icons/flip-vertical-24.svg

<svg xmlns="http://www.w3.org/2000/svg" viewBox="0 0 24 24"><path fill="none" d="M0 0h24v24H0z"/><path d="M7 13H5v-1h2zm8 0v-1h-2v1zm-4 0v-1H9v1zm10-1v1h2v-1zm-4 1h2v-1h-2zM1 13h2v-1H1zm4 10h13l-6.5-9zm6.5-12L5 2h13zM6.956 3L11.5 9.292 16.044 3z"/></svg>

<svg id="icons" xmlns="http://www.w3.org/2000/svg" viewBox="0 0 24 24"><defs><style>.cls-1{fill:none;}</style></defs><rect class="cls-1" width="24" height="24"/><path d="M7,13H5V12H7Zm8,0V12H13v1Zm-4,0V12H9v1Zm10-1v1h2V12Zm-4,1h2V12H17ZM1,13H3V12H1ZM5,23H18l-6.5-9Zm6.5-12L5,2H18ZM6.95557,3,11.5,9.292,16.04443,3Z"/></svg>
